public/img/assets/icons/calendar.svg

<svg width="44" height="44" viewBox="0 0 44 44" fill="none" xmlns="http://www.w3.org/2000/svg">
<rect x="8.79999" y="12.3201" width="26.4" height="22.88" rx="6" fill="#3FD5FE"/>
<rect x="8.79999" y="12.3198" width="26.4" height="22.88" rx="4" fill="#3377FF"/>
<path d="M10.56 17.5999H33.44V30.4399C33.44 32.0967 32.0968 33.4399 30.44 33.4399H13.56C11.9031 33.4399 10.56 32.0967 10.56 30.4399V17.5999Z" fill="#3FD5FE"/>
<path d="M25.96 29.2159C25.96 29.0525 26.0249 28.8958 26.1404 28.7803C26.2559 28.6648 26.4126 28.5999 26.576 28.5999H28.864C29.0273 28.5999 29.184 28.6648 29.2995 28.7803C29.4151 28.8958 29.48 29.0525 29.48 29.2159V31.5039C29.48 31.6672 29.4151 31.8239 29.2995 31.9394C29.184 32.055 29.0273 32.1199 28.864 32.1199H26.576C26.4126 32.1199 26.2559 32.055 26.1404 31.9394C26.0249 31.8239 25.96 31.6672 25.96 31.5039V29.2159Z" fill="#3377FF"/>
<path d="M20.24 29.2159C20.24 29.0525 20.3049 28.8958 20.4204 28.7803C20.5359 28.6648 20.6926 28.5999 20.856 28.5999H23.144C23.3074 28.5999 23.464 28.6648 23.5796 28.7803C23.6951 28.8958 23.76 29.0525 23.76 29.2159V31.5039C23.76 31.6672 23.6951 31.8239 23.5796 31.9394C23.464 32.055 23.3074 32.1199 23.144 32.1199H20.856C20.6926 32.1199 20.5359 32.055 20.4204 31.9394C20.3049 31.8239 20.24 31.6672 20.24 31.5039V29.2159Z" fill="#3377FF"/>
<path d="M14.52 29.2159C14.52 29.0525 14.5849 28.8958 14.7004 28.7803C14.8159 28.6648 14.9726 28.5999 15.136 28.5999H17.424C17.5873 28.5999 17.744 28.6648 17.8595 28.7803C17.9751 28.8958 18.04 29.0525 18.04 29.2159V31.5039C18.04 31.6672 17.9751 31.8239 17.8595 31.9394C17.744 32.055 17.5873 32.1199 17.424 32.1199H15.136C14.9726 32.1199 14.8159 32.055 14.7004 31.9394C14.5849 31.8239 14.52 31.6672 14.52 31.5039V29.2159Z" fill="#3377FF"/>
<path d="M25.96 24.816C25.96 24.6526 26.0249 24.4959 26.1404 24.3804C26.2559 24.2649 26.4126 24.2 26.576 24.2H28.864C29.0273 24.2 29.184 24.2649 29.2995 24.3804C29.4151 24.4959 29.48 24.6526 29.48 24.816V27.1039C29.48 27.2673 29.4151 27.424 29.2995 27.5395C29.184 27.6551 29.0273 27.7199 28.864 27.7199H26.576C26.4126 27.7199 26.2559 27.6551 26.1404 27.5395C26.0249 27.424 25.96 27.2673 25.96 27.1039V24.816Z" fill="#3377FF"/>
<path d="M20.24 24.816C20.24 24.6526 20.3049 24.4959 20.4204 24.3804C20.5359 24.2649 20.6926 24.2 20.856 24.2H23.144C23.3074 24.2 23.464 24.2649 23.5796 24.3804C23.6951 24.4959 23.76 24.6526 23.76 24.816V27.1039C23.76 27.2673 23.6951 27.424 23.5796 27.5395C23.464 27.6551 23.3074 27.7199 23.144 27.7199H20.856C20.6926 27.7199 20.5359 27.6551 20.4204 27.5395C20.3049 27.424 20.24 27.2673 20.24 27.1039V24.816Z" fill="#3377FF"/>
<path d="M14.52 24.816C14.52 24.6526 14.5849 24.4959 14.7004 24.3804C14.8159 24.2649 14.9726 24.2 15.136 24.2H17.424C17.5873 24.2 17.744 24.2649 17.8595 24.3804C17.9751 24.4959 18.04 24.6526 18.04 24.816V27.1039C18.04 27.2673 17.9751 27.424 17.8595 27.5395C17.744 27.6551 17.5873 27.7199 17.424 27.7199H15.136C14.9726 27.7199 14.8159 27.6551 14.7004 27.5395C14.5849 27.424 14.52 27.2673 14.52 27.1039V24.816Z" fill="#3377FF"/>
<path d="M25.96 20.416C25.96 20.2527 26.0249 20.096 26.1404 19.9805C26.2559 19.8649 26.4126 19.8 26.576 19.8H28.864C29.0273 19.8 29.184 19.8649 29.2995 19.9805C29.4151 20.096 29.48 20.2527 29.48 20.416V22.704C29.48 22.8674 29.4151 23.0241 29.2995 23.1396C29.184 23.2551 29.0273 23.32 28.864 23.32H26.576C26.4126 23.32 26.2559 23.2551 26.1404 23.1396C26.0249 23.0241 25.96 22.8674 25.96 22.704V20.416Z" fill="#3377FF"/>
<path d="M20.24 20.416C20.24 20.2527 20.3049 20.096 20.4204 19.9805C20.5359 19.8649 20.6926 19.8 20.856 19.8H23.144C23.3074 19.8 23.464 19.8649 23.5796 19.9805C23.6951 20.096 23.76 20.2527 23.76 20.416V22.704C23.76 22.8674 23.6951 23.0241 23.5796 23.1396C23.464 23.2551 23.3074 23.32 23.144 23.32H20.856C20.6926 23.32 20.5359 23.2551 20.4204 23.1396C20.3049 23.0241 20.24 22.8674 20.24 22.704V20.416Z" fill="#3377FF"/>
<path d="M14.52 20.416C14.52 20.2527 14.5849 20.096 14.7004 19.9805C14.8159 19.8649 14.9726 19.8 15.136 19.8H17.424C17.5873 19.8 17.744 19.8649 17.8595 19.9805C17.9751 20.096 18.04 20.2527 18.04 20.416V22.704C18.04 22.8674 17.9751 23.0241 17.8595 23.1396C17.744 23.2551 17.5873 23.32 17.424 23.32H15.136C14.9726 23.32 14.8159 23.2551 14.7004 23.1396C14.5849 23.0241 14.52 22.8674 14.52 22.704V20.416Z" fill="#3377FF"/>
<path d="M14.96 12.3199V10.8275C14.96 10.1921 15.451 9.67993 16.06 9.67993C16.6689 9.67993 17.16 10.1921 17.16 10.8275V12.3199H14.96ZM25.96 24.8159C25.96 24.6526 26.0249 24.4959 26.1404 24.3804C26.2559 24.2648 26.4126 24.1999 26.576 24.1999H28.864C29.0273 24.1999 29.184 24.2648 29.2995 24.3804C29.4151 24.4959 29.48 24.6526 29.48 24.8159V27.1039C29.48 27.2673 29.4151 27.424 29.2995 27.5395C29.184 27.655 29.0273 27.7199 28.864 27.7199H26.576C26.4126 27.7199 26.2559 27.655 26.1404 27.5395C26.0249 27.424 25.96 27.2673 25.96 27.1039V24.8159ZM14.52 20.4159C14.52 20.2526 14.5849 20.0959 14.7004 19.9804C14.8159 19.8648 14.9726 19.7999 15.136 19.7999H17.424C17.5873 19.7999 17.744 19.8648 17.8595 19.9804C17.9751 20.0959 18.04 20.2526 18.04 20.4159V22.7039C18.04 22.8673 17.9751 23.024 17.8595 23.1395C17.744 23.255 17.5873 23.3199 17.424 23.3199H15.136C14.9726 23.3199 14.8159 23.255 14.7004 23.1395C14.5849 23.024 14.52 22.8673 14.52 22.7039V20.4159ZM20.24 20.4159C20.24 20.2526 20.3049 20.0959 20.4204 19.9804C20.5359 19.8648 20.6926 19.7999 20.856 19.7999H23.144C23.3073 19.7999 23.464 19.8648 23.5795 19.9804C23.6951 20.0959 23.76 20.2526 23.76 20.4159V22.7039C23.76 22.8673 23.6951 23.024 23.5795 23.1395C23.464 23.255 23.3073 23.3199 23.144 23.3199H20.856C20.6926 23.3199 20.5359 23.255 20.4204 23.1395C20.3049 23.024 20.24 22.8673 20.24 22.7039V20.4159ZM25.96 20.4159C25.96 20.2526 26.0249 20.0959 26.1404 19.9804C26.2559 19.8648 26.4126 19.7999 26.576 19.7999H28.864C29.0273 19.7999 29.184 19.8648 29.2995 19.9804C29.4151 20.0959 29.48 20.2526 29.48 20.4159V22.7039C29.48 22.8673 29.4151 23.024 29.2995 23.1395C29.184 23.255 29.0273 23.3199 28.864 23.3199H26.576C26.4126 23.3199 26.2559 23.255 26.1404 23.1395C26.0249 23.024 25.96 22.8673 25.96 22.7039V20.4159ZM14.52 24.8159C14.52 24.6526 14.5849 24.4959 14.7004 24.3804C14.8159 24.2648 14.9726 24.1999 15.136 24.1999H17.424C17.5873 24.1999 17.744 24.2648 17.8595 24.3804C17.9751 24.4959 18.04 24.6526 18.04 24.8159V27.1039C18.04 27.2673 17.9751 27.424 17.8595 27.5395C17.744 27.655 17.5873 27.7199 17.424 27.7199H15.136C14.9726 27.7199 14.8159 27.655 14.7004 27.5395C14.5849 27.424 14.52 27.2673 14.52 27.1039V24.8159ZM20.24 24.8159C20.24 24.6526 20.3049 24.4959 20.4204 24.3804C20.5359 24.2648 20.6926 24.1999 20.856 24.1999H23.144C23.3073 24.1999 23.464 24.2648 23.5795 24.3804C23.6951 24.4959 23.76 24.6526 23.76 24.8159V27.1039C23.76 27.2673 23.6951 27.424 23.5795 27.5395C23.464 27.655 23.3073 27.7199 23.144 27.7199H20.856C20.6926 27.7199 20.5359 27.655 20.4204 27.5395C20.3049 27.424 20.24 27.2673 20.24 27.1039V24.8159ZM14.52 29.2159C14.52 29.0526 14.5849 28.8959 14.7004 28.7804C14.8159 28.6648 14.9726 28.5999 15.136 28.5999H17.424C17.5873 28.5999 17.744 28.6648 17.8595 28.7804C17.9751 28.8959 18.04 29.0526 18.04 29.2159V31.5039C18.04 31.6673 17.9751 31.824 17.8595 31.9395C17.744 32.055 17.5873 32.1199 17.424 32.1199H15.136C14.9726 32.1199 14.8159 32.055 14.7004 31.9395C14.5849 31.824 14.52 31.6673 14.52 31.5039V29.2159ZM20.24 29.2159C20.24 29.0526 20.3049 28.8959 20.4204 28.7804C20.5359 28.6648 20.6926 28.5999 20.856 28.5999H23.144C23.3073 28.5999 23.464 28.6648 23.5795 28.7804C23.6951 28.8959 23.76 29.0526 23.76 29.2159V31.5039C23.76 31.6673 23.6951 31.824 23.5795 31.9395C23.464 32.055 23.3073 32.1199 23.144 32.1199H20.856C20.6926 32.1199 20.5359 32.055 20.4204 31.9395C20.3049 31.824 20.24 31.6673 20.24 31.5039V29.2159Z" fill="#3377FF"/>
<path d="M26.84 10.8275V12.3199H29.04V10.8275C29.04 10.1921 28.5489 9.67993 27.94 9.67993C27.331 9.67993 26.84 10.1921 26.84 10.8275V10.8275Z" fill="#3377FF"/>
<path d="M26.84 13.8124V12.32H29.04V13.8124C29.04 14.4478 28.5489 14.96 27.94 14.96C27.331 14.96 26.84 14.4478 26.84 13.8124V13.8124Z" fill="#3FD5FE"/>
<path d="M14.96 10.8275V12.3199H17.16V10.8275C17.16 10.1921 16.6689 9.67993 16.06 9.67993C15.451 9.67993 14.96 10.1921 14.96 10.8275V10.8275Z" fill="#3377FF"/>
<path d="M14.96 13.8124V12.32H17.16V13.8124C17.16 14.4478 16.6689 14.96 16.06 14.96C15.451 14.96 14.96 14.4478 14.96 13.8124V13.8124Z" fill="#3FD5FE"/>
</svg>

<svg xmlns="http://www.w3.org/2000/svg" fill="none" viewBox="0 0 44 44"><rect fill="#3FD5FE" width="26.4" height="22.88" x="8.8" y="12.32" rx="6"/><rect fill="#37F" width="26.4" height="22.88" x="8.8" y="12.32" rx="4"/><path d="M10.56 17.6h22.88v12.84a3 3 0 0 1-3 3H13.56a3 3 0 0 1-3-3V17.6Z" fill="#3FD5FE"/><path d="M25.96 29.22a.62.62 0 0 1 .62-.62h2.28a.62.62 0 0 1 .62.62v2.28a.62.62 0 0 1-.62.62h-2.28a.62.62 0 0 1-.62-.62v-2.28Zm-5.72 0a.62.62 0 0 1 .62-.62h2.28a.62.62 0 0 1 .62.62v2.28a.62.62 0 0 1-.62.62h-2.28a.62.62 0 0 1-.62-.62v-2.28Zm-5.72 0a.62.62 0 0 1 .62-.62h2.28a.62.62 0 0 1 .62.62v2.28a.62.62 0 0 1-.62.62h-2.28a.62.62 0 0 1-.62-.62v-2.28Zm11.44-4.4a.62.62 0 0 1 .62-.62h2.28a.62.62 0 0 1 .62.62v2.28a.62.62 0 0 1-.62.62h-2.28a.62.62 0 0 1-.62-.62v-2.28Zm-5.72 0a.62.62 0 0 1 .62-.62h2.28a.62.62 0 0 1 .62.62v2.28a.62.62 0 0 1-.62.62h-2.28a.62.62 0 0 1-.62-.62v-2.28Zm-5.72 0a.62.62 0 0 1 .62-.62h2.28a.62.62 0 0 1 .62.62v2.28a.62.62 0 0 1-.62.62h-2.28a.62.62 0 0 1-.62-.62v-2.28Zm11.44-4.4a.62.62 0 0 1 .62-.62h2.28a.62.62 0 0 1 .62.62v2.28a.62.62 0 0 1-.62.62h-2.28a.62.62 0 0 1-.62-.62v-2.28Zm-5.72 0a.62.62 0 0 1 .62-.62h2.28a.62.62 0 0 1 .62.62v2.28a.62.62 0 0 1-.62.62h-2.28a.62.62 0 0 1-.62-.62v-2.28Zm-5.72 0a.62.62 0 0 1 .62-.62h2.28a.62.62 0 0 1 .62.62v2.28a.62.62 0 0 1-.62.62h-2.28a.62.62 0 0 1-.62-.62v-2.28Z" fill="#37F"/><path d="M14.96 12.32v-1.5c0-.63.5-1.14 1.1-1.14.6 0 1.1.51 1.1 1.15v1.49h-2.2Zm11 12.5a.62.62 0 0 1 .62-.62h2.28a.62.62 0 0 1 .62.62v2.28a.62.62 0 0 1-.62.62h-2.28a.62.62 0 0 1-.62-.62v-2.28Zm-11.44-4.4a.62.62 0 0 1 .62-.62h2.28a.62.62 0 0 1 .62.62v2.28a.62.62 0 0 1-.62.62h-2.28a.62.62 0 0 1-.62-.62v-2.28Zm5.72 0a.62.62 0 0 1 .62-.62h2.28a.62.62 0 0 1 .62.62v2.28a.62.62 0 0 1-.62.62h-2.28a.62.62 0 0 1-.62-.62v-2.28Zm5.72 0a.62.62 0 0 1 .62-.62h2.28a.62.62 0 0 1 .62.62v2.28a.62.62 0 0 1-.62.62h-2.28a.62.62 0 0 1-.62-.62v-2.28Zm-11.44 4.4a.62.62 0 0 1 .62-.62h2.28a.62.62 0 0 1 .62.62v2.28a.62.62 0 0 1-.62.62h-2.28a.62.62 0 0 1-.62-.62v-2.28Zm5.72 0a.62.62 0 0 1 .62-.62h2.28a.62.62 0 0 1 .62.62v2.28a.62.62 0 0 1-.62.62h-2.28a.62.62 0 0 1-.62-.62v-2.28Zm-5.72 4.4a.62.62 0 0 1 .62-.62h2.28a.62.62 0 0 1 .62.62v2.28a.62.62 0 0 1-.62.62h-2.28a.62.62 0 0 1-.62-.62v-2.28Zm5.72 0a.62.62 0 0 1 .62-.62h2.28a.62.62 0 0 1 .62.62v2.28a.62.62 0 0 1-.62.62h-2.28a.62.62 0 0 1-.62-.62v-2.28Zm6.6-18.4v1.5h2.2v-1.5c0-.63-.5-1.14-1.1-1.14-.6 0-1.1.51-1.1 1.15Z" fill="#37F"/><path d="M26.84 13.81v-1.5h2.2v1.5c0 .64-.5 1.15-1.1 1.15-.6 0-1.1-.51-1.1-1.15Z" fill="#3FD5FE"/><path d="M14.96 10.83v1.49h2.2v-1.5c0-.63-.5-1.14-1.1-1.14-.6 0-1.1.51-1.1 1.15Z" fill="#37F"/><path d="M14.96 13.81v-1.5h2.2v1.5c0 .64-.5 1.15-1.1 1.15-.6 0-1.1-.51-1.1-1.15Z" fill="#3FD5FE"/></svg>
